X:14891
T:Saxe Coburg. JC.205
M:6/8
L:1/8
Q:100
S:John Clare,Poet,Helpstone (1793-1864)
R:March
O:England150
A:Northamptonshire
N:
Z:P Headford
K:C
c2d ede|fdf ece|fdf ece|{g}fef dBG|!
c2d ece|fdf ecg|afa gec|{e}dcBc2z||!
g2f egc'|g2f egc'|afa gec|Bcd dBG|!
g2f egc'|g2f egc'|c'af gec|{e}dcBc2z||!
[c2e2]z[c2e2]z|[ce][df][ce][B2d2][ce]|
[d2f2][ce][B2d2][ce]|[d2f2][ce][B2d2][c|!
[c2e2]z[c2e2]z|[ce][df][ce][G2d2][Ec]|
[F2d2][Ec][F2d2][Ge]|[Fd][Ec][Dd][E2c2]z|]
W:MS includes Dance Instructions.
